**kern
*clefG2
*k[b-e-a-]
*M4/4
=1
4C 4c
4E- 4e-
8BBnL 8Bn
8GJ 8g
8r
8Bn 8bn
=2
8.cL 8.cc
16B-Jk 16b-
8.A-L 8.a-
32GLL 32g
32A-JJJ 32a-
8B-L 8b-
8BB-J 8B-
8r
8B- 8b-
=3
8.GL 8.g
32FLL 32f
32GJJJ 32g
8A-L 8a-
16.AA-L 16.A-
32A-JJk 32a-
8.FL 8.f
32E-LL 32e-
32FJJJ 32f
8GL 8g
16.GGL 16.G
32FJJk 32f
=4
16.E-LL 16.e-
32DJk 32d
16.CL 16.c
32BB-JJk 32B-
8.AA-L 8.A-
32GGLL 32G
32AA-JJJ 32A-
8GGL 8G
8GJ 8g
4r
=5
[16CLL 16c 16e- 16g
16CJ_ 16c 16e- 16g
16CL_ 16c 16e- 16g
16CJJ] 16c 16e- 16g
[16E-LL 16c 16e- 16g
16E-J_ 16c 16e- 16g
16E-L_ 16c 16e- 16g
16E-JJ] 16c 16e- 16g
[16BBnLL 16d 16f 16g
16BBJ] 16d 16f 16g
[16GL 16d 16f 16g
16GJJ] 16d 16f 16g
16dLL 16f 16g
16dJ 16f 16g
[16BnL 16d 16f 16g
16BJJ] 16d 16f 16g
=6
[16cLL 16e- 16g
16cJ_ 16e- 16g
16cL] 16e- 16g
16B-JJ 16c 16e- 16g
[16A-LL 16c 16e- 16f
16A-J_ 16c 16e- 16f
16A-L] 16c 16e- 16f
32GL [32c [32e- [32f
32A-JJJ 32c] 32e-] 32f]
[16B-LL 16d 16f
16B-J] 16d 16f
[16BB-L 16B- 16d 16f
16BB-JJ] 16B- 16d 16f
16B-LL 16d 16f
16B-J 16d 16f
[16B-L 16d 16f
16B-JJ] 16d 16f
=7
[16GLL 16B- 16d 16e-
16GJ_ 16B- 16d 16e-
16GL] 16B- 16d 16e-
32FL [32B- [32d [32e-
32GJJJ 32B-] 32d] 32e-]
[16A-LL 16c 16e-
16A-J] 16c 16e-
[16AA-L 16A- 16c 16e-
32AA-L] [32A- [32c [32e-
32A-JJJ] 32c] 32e-]
[16FLL 16A- 16c 16d
16FJ_ 16A- 16c 16d
16FL] 16A- 16c 16d
32E-L [32A- [32c [32d
32FJJJ 32A-] 32c] 32d]
[16GLL 16Bn 16d
16GJ] 16Bn 16d
[16GGL 16G 16Bn 16d
32GGL] [32G [32Bn [32d
32GJJJ] 32B] 32d]
=8
16.CLL 16.G 16.c 16.e-
32CJk 32G 32c 32e-
16.BB-L 16.G 16.c 16.e-
32BB-JJk 32G 32c 32e-
8AA- 8A- 8c 8f
8r
16.A-LL 16.c 16.f
32A-Jk 32c 32f
16.EnL 16.B- 16.c 16.g
32EnJJk 32B- 32c 32g
8F 8A- 8c 8a-
16r
16A-
=9
16cLL
16fJ
16a-L
16ccJJ
16ffLL
16aa-J
16cccL
16bb-JJ
16aa-LL
16b-J 16gg
16a-L 16ff
16gJJ 16een
16b-LL 16gg
16a-J 16ff
16ccL 16aa-
16b-JJ 16gg
=10
16a-LL 16ff
16gJ 16b- 16ee-
16fL 16a- 16dd
16e-JJ 16g 16cc
16dLL 16f 16b-
16cJ 16e- 16a-
16B-L 16d 16g
16A-JJ 16c 16f
16.GLL 16.B- 16.e-
32GJk 32B- 32e-
16.FL 16.B- 16.d 16.a-
32FJJk 32B- 32d 32a-
8E- 8B- 8e- 8g
8r
=11
16.E-LL 16.B- 16.e- 16.g
32E-Jk 32B- 32e- 32g
16.D-XL 16.e- 16.g 16.b-
32D-XJJk 32e- 32g 32b-
8C 8e- 8a- 8ee-
16r
16A-
16cLL
16e-J
16a-L
16ccJJ
16ee-LL
16aa-J
16cccL
16bb-JJ
=12
16aa-LL
16ggJ
16ffL
16ee-JJ
16dd-XLL
16ccJ
16ee-L
16dd-XJJ
16ffLL
16ee-J
16dd-XL
16ccJJ
16b-LL
16a-J
16gL
16b-JJ
=13
16a-LL
16cJ 16cc
16B-L 16b-
16A-JJ 16a-
16GLL 16g
16FJ 16f
16E-L 16e-
16D-XJJ 16d-X
16CLL 16c
16E-J 16e-
16D-XL 16d-X
16FJJ 16f
16E-LL 16e-
16D-XJ 16d-X
16CL 16c
16BB-JJ 16B-
=14
16AAnLL 16An
16CJ 16c
16E-L 16e-
16G-XJJ 16g-X
16AnLL 16an
16cJ 16cc
16e-L 16ee-
16ccJJ
16gg-XLL
16ee-J
16cccL
16aanJJ
16eee-LL
16eee-J
16eee-L
16eee-JJ
=15
[8eee-L
8eee-J]
16r
16cLL 16an 16gg-X 16eee-
16c 16an 16gg-X 16eee-
16cJJ 16an 16gg-X 16eee-
8c 8an 8gg-X 8eee-
8.r
16eee-LL
16eee-
16eee-JJ
=16
4eee-
16eee-LL
16ddd-XJ
16cccL
16bb-JJ
16aanLL
16ggg-XJ
16ggg-L
16ggg-JJ
16ggg-LL
16ggg-J
16ggg-L
16ggg-JJ
=17
[16ggg-XLL
16e-J 16cc 16aan 16ggg-_
16e-L 16cc 16aan 16ggg-_
16e-JJ 16cc 16aan 16ggg-_
[16e-LL [16cc [16aan 16ggg-]
32e-L_ 32cc_ 32aa_ 32fff
32e-JJ] 32cc] 32aa] 32eee-
32ddd-XLL
32ccc
32bb-
32aanJJJ
16.bb-LL
32d-XJk 32b- 32ff 32ddd-X
16.d-XL 16.b- 16.ff 16.ddd-
32d-XJJk 32b- 32ff 32ddd-X
8d-X 8b- 8ff 8ddd-
8r
=18
24BB-LL 24B-
24D-X 24d-X
24FJ 24f
24B-L 24b-
24d-X 24dd-X
24B-JJ 24b-
24B-LL 24b-
24c 24cc
24B-J 24b-
24A-L 24a-
24G 24g
24FJJ 24f
16.EnLL 16.en
32EnJk 32c 32cc 32gg 32bb-
16.EnL 16.c 16.cc 16.gg 16.bb-
32EnJJk 32c 32cc 32gg 32bb-
8En 8c 8cc 8gg 8bb-
8r
=19
8r
8cc 8aa-
8b-L 8gg
8a-J 8ff
8gL 8een
8dd-XJ 8bb-
8ccL 8aa-
8b-J 8gg
=20
16a-LL 16ff
16gJ 16een
16b-L 16gg
16a-JJ 16ff
16ccLL 16aa-
16b-J 16gg
16a-L 16ff
16gJJ 16ee-X
16fLL 16dd
16e-XJ 16cc
16gL 16ee-
16fJJ 16dd
16a-LL 16ff
16gJ 16ee-
16fL 16dd
16e-JJ 16cc
=21
16dLL 16bn
16BBnJ 16Bn
16DL 16d
16FJJ 16f
16A-LL 16a-
16BnJ 16bn
16dL 16dd
16fJJ 16ff
[4a- [4aa-
16a-LL] 16aa-]
32gL 32gg
32fJJ 32ff
32e-LL 32ee-
32d 32dd
32c 32cc
32BnJJJ 32bn
=22
16cLL 16cc
16CJ 16c
16E-L 16e-
16GJJ 16g
16cLL 16cc
16GJ 16g
16e-L 16ee-
16cJJ 16cc
24gLL 24gg
24f 24ff
24e-J 24ee-
24dL 24dd
24c 24cc
24BnJJ 24bn
32cLLL 32cc
32d 32dd
32e- 32ee-
32dJJ 32dd
32cLL 32cc
32B-X 32b-X
32An 32a- 32an
32GJJJ 32g
=23
16F#XLL 16f#X
16AAnJ 16An
16CL 16c
16E-JJ 16e-
16F#XLL 16f#X
16AnJ 16an
16cL 16cc
16e-JJ 16ee-
4.e- 4.ee-
8d 8dd
=24
16.cLL 16.a- 16.dd 16.ff#X
32cJk 32a- 32dd 32ff#
16.B-L 16.g 16.dd 16.gg
32B-JJk 32g 32dd 32gg
16.AnLL 16.c 16.ff#X 16.aan
32AnJk 32c 32ff#X 32aa
16.GL 16.B- 16.gg 16.bb-
32GJJk 32B- 32gg 32bb-
16.F#XLL 16.An 16.aan 16.ccc
32F#XJk 32An 32ccc 32eee-
16.F#XL 16.An 16.ccc 16.eee-
32F#XJJk 32An 32ccc 32eee-
8F#X 8An 8ccc 8eee-
8r
=25
16.r
32cccKLL 32eee-
16.ccc 16.eee-
32cccJJk 32eee-
8ccc 8eee-
8..r
32f#XKLL 32an 32cc 32dd
16.f#X 16.an 16.cc 16.dd
32f#XJJk 32an 32cc 32dd
8f#X 8an 8cc 8dd
8r
=26
[16GLL 16g 16b- 16dd
16GJ_ 16g 16b- 16dd
16GL_ 16g 16b- 16dd
16GJJ] 16g 16b- 16dd
[16B-LL 16g 16b- 16dd
16B-J_ 16g 16b- 16dd
16B-L_ 16g 16b- 16dd
16B-JJ] 16g 16b- 16dd
[16F#XLL 16an 16cc 16dd
16F#J] 16an 16cc 16dd
[16dL 16an 16cc 16dd
16dJJ] 16an 16cc 16dd
16anLL 16cc 16dd
16anJ 16cc 16dd
[16f#XL 16an 16cc 16dd
16f#JJ] 16an 16cc 16dd
=27
[16gLL 16b- 16dd
16gJ_ 16b- 16dd
16gL] 16b- 16dd
16fJJ 16g 16b- 16dd
[16e-LL 16g 16b- 16cc
16e-J_ 16g 16b- 16cc
16e-L] 16g 16b- 16cc
32dL [32g [32b- [32cc
32e-JJJ 32g] 32b-] 32cc]
[16fLL 16an 16cc
16fJ] 16an 16cc
[16FL 16f 16an 16cc
16FJJ] 16f 16an 16cc
16fLL 16an 16cc
16fJ 16an 16cc
[16fL 16an 16cc
16fJJ] 16an 16cc
=28
[16dLL 16f 16an 16b-
16dJ_ 16f 16an 16b-
16dL] 16f 16an 16b-
32cL [32f [32an [32b-
32dJJJ 32f] 32a] 32b-]
[16e-LL 16g 16b-
16e-J] 16g 16b-
[16E-L 16e- 16g 16b-
32E-L] [32e- [32g [32b-
32e-JJJ] 32g] 32b-]
[16cLL 16e- 16g 16an
16cJ_ 16e- 16g 16a
16cL] 16e- 16g 16an
32B-L [32e- [32g [32a
32cJJJ 32e-] 32g] 32a]
[16dLL 16f#X 16an
16dJ] 16f#X 16a
[16BB-L 16d 16f#X 16an
32BB-L] [32d [32f#X [32a
32cJJJ 32d] 32f#] 32a]
=29
16.B-LL 16.d 16.g
32B-Jk 32d 32g
16.F#XL 16.c 16.d 16.an
32F#XJJk 32c 32d 32a
8G 8B- 8d 8b-
8r
16.GLL 16.d 16.g 16.b-
32GJk 32d 32g 32b-
16.FnL 16.d 16.g 16.bn
32FJJk 32d 32g 32b
16.E-LL 16.c 16.g 16.cc
32E-Jk 32c 32g 32cc
16.BBnL 16.f 16.g 16.dd
32BBnJJk 32f 32g 32dd
=30
[8CL [8e- [8g 8ee-
32CLL_ 32e-_ 32g_ 32ccc
32C_ 32e-_ 32g_ 32ddd
32C_ 32e-_ 32g_ 32eee-
32CJJJ] 32e-] 32g] 32ddd
[16.cccLL
32A-Jk 32c 32e- 32ccc]
16.A-L 16.c 16.e-
32A-JJk 32c 32e-
[8A-L [8c [8e-
32A-LL_ 32c_ 32e-_ 32ccc
32A-_ 32c_ 32e-_ 32ddd
32A-_ 32c_ 32e-_ 32eee-
32A-JJJ] 32c] 32e-] 32ddd
[16.cccLL
32GJk 32c 32e- 32ccc]
16.GL 16.c 16.e-
32GJJk 32c 32e-
=31
[8GL [8c [8e-
32GLL_ 32c_ 32e-_ 32ccc
32G_ 32c_ 32e-_ 32ddd
32G_ 32c_ 32e-_ 32eee-
32GJJJ] 32c] 32e-] 32ddd
[16.cccLL
32F#XJk 32c 32e- 32ccc]
16.F#XL 16.c 16.e-
32F#XJJk 32c 32e-
4F#X 4c 4e-
8r
32cccLLL
32eee-
32fff#X
32eee-JJJ
=32
32cccLLL
32eee-
32fff#X
32eee-JJ
32cccLL
32eee-
32fff#X
32eee-JJJ
8ccc
4...r
32FF#XKLL 32F#X 32c 32e-
16.FF#X 16.F#X 16.c 16.e-
32FF#XJJk 32F#X 32c 32e-
=33
8GG 8G 8Bn 8d
8r
8GG 8D 8Bn 8g
16.r
32GG 32D 32Bn 32g
4GG 4D 4Bn 4g
4r
=34
[24EE-LL 24B- [24b-
24EE-_ 24e- 24b-_
24EE-J] 24g 24b-_
[24e-L 24b-_
24e-_ 24g 24b-_
24e-JJ] 24b-_
24B-LL [24g 24b-_
24e- 24g_ 24b-_
24gJ] 24b-_
[24e-L 24b-_
24e-_ 24g 24b-_
24e-JJ] 24b-]
[24E-LL 24B- [24gg
24E-_ 24e- 24gg_
24E-J_ 24g 24gg_
24E-L_ [24e- 24b- 24gg_
24E-_ 24e-_ 24g 24gg_
24E-JJ] 24e-] 24gg]
24B-LL [24f [24ff
24e- 24f_ 24ff_
24fJ] 24g 24ff]
[24gL 24b- [24ee-
24g_ 24ee-_
24e-JJ 24g] 24ee-]
=35
[24BB-LL 24B- [24dd
24BB-_ 24d 24dd_
24BB-J_ 24f 24dd_
24BB-L_ [24f 24b- 24dd_
24BB-_ 24f_ 24a- 24dd_
24BB-JJ] 24d 24f] 24dd]
24B-LL [24a- [24dd
24d 24a-_ 24dd_
24fJ 24a-] 24dd_
[24dL 24b- 24dd_
48dL_ [48a- 48dd]
48d_ 48a-] [48ee-
96dK_ 96ee-]
32dJJJ] 32ff
[24E-LL 24B- [24ee-
24E-_ 24e- 24ee-_
24E-J_ 24g 24ee-_
24E-L_ [24e- 24b- 24ee-_
24E-_ 24e-_ 24g 24ee-_
24E-JJ] 24e-] 24ee-]
24B-LL [24g
24e- 24g_
24gJ]
[24e-L 24b-
24e-_ 24g
24e-JJ]
=36
[24AA-LL 24c [24aa-
24AA-_ 24e- 24aa-_
24AA-J_ 24a- 24aa-_
24AA-L_ [24e- 24cc 24aa-_
24AA-_ 24e-_ 24a- 24aa-_
24AA-JJ] 24e-] 24aa-_
24cLL [24a- 24aa-_
24e- 24a-_ 24aa-_
24a-J] 24aa-_
[24A-L 24cc 24aa-_
24A-_ 24a- 24aa-_
24A-JJ] 24e- 24aa-]
[24E-LL [24G 24B- [24bb-
24E-_ 24G_ 24e- 24bb-_
24E-J_ 24G] 24g 24bb-]
24E-L_ [24e- 24b- [24ggg
24E-_ 24e-_ 24g 24ggg_
24E-JJ] 24e-] 24ggg]
24B-LL [24g [24fff
[48e-L 48g_ 48fff]
48e-J] 48g_ [48eee-
24gJ] 24eee-]
[24e-L 24b- [24ddd
48e-L_ [48g 48ddd]
48e-J_ 48g] [48ccc
24e-JJ] 24ccc]
=37
[24BB-LL 24B- [24bb-
24BB-_ 24d 24bb-_
24BB-J_ 24f 24bb-_
24BB-L_ [24d 24a- 24bb-_
24BB-_ 24d_ 24f 24bb-_
24BB-JJ] 24d] 24bb-]
24B-LL [24f [24aa-
24d 24f_ 24aa-_
24fJ] 24aa-_
[24dL 24a- 24aa-_
24d_ 24f 24aa-_
24dJJ] 24aa-]
[24EE-LL 24B- [24gg
24EE-_ 24e- 24gg_
24EE-J_ 24g 24gg_
24EE-L_ [24e- 24b- 24gg_
24EE-_ 24e-_ 24g 24gg_
24EE-JJ] 24e-] 24gg]
24B-LL [24g
24e- 24g_
24gJ]
[24e-L 24b-
24e-_ 24g
24e-JJ]
=38
[24E-LL 24B- [24e-
24E-_ 24e-_
24E-J_ 24e-_ 24g
24E-L_ 24e-_ [24g 24b-
24E-_ 24e-_ 24g_
24E-JJ] 24e-] 24g]
24B-LL [24b- [24gg
24e- 24b-_ 24gg_
24gJ 24b-] 24gg_
[24e-L 24b- 24gg_
24e-_ 24g 24gg_
24e-JJ] 24gg]
[24DLL 24B- [24ff
24D_ 24d 24ff_
24DJ_ 24f 24ff]
24DL_ [24f 24b- [24ee-
24D_ 24f_ 24ee-_
24DJJ] 24d 24f] 24ee-]
24B-LL [24d [24b-
24d_ 24b-_
24dJ] 24f 24b-_
[24B-L 24b-_
24B-_ 24f 24b-_
24B-JJ] 24d 24b-]
=39
[24CLL 24c [24ee-
24C_ 24e- 24ee-_
24CJ_ 24g 24ee-]
24CL_ [24g 24b- [24eee-
24C_ 24g_ 24eee-_
24CJJ] 24e- 24g] 24eee-_
[24FFLL 24c [24an 24eee-_
48FFL_ [48e- 48a_ 48eee-]
48FF_ 48e-] 48a_ [48ddd
96FFK_ [96f 96a_ 96ddd]
32FFJJ_ 32f] 32a] 32ccc
32FFLL_ [32an [32cc 32bb-
96FFK_ 96a] 96cc_ [96aa-X
48FF_ [48f 48cc_ 48aa-]
48FF_ 48f] 48cc_ [48gg
96FFK_ [96e- 96cc_ 96gg]
32FFJJJ] 32e-] 32cc] 32ff
[24BB-LL 24B- [24dd
24BB-_ 24d 24dd_
24BB-J_ 24f 24dd_
24BB-L_ [24f 24b- 24dd_
24BB-_ 24f_ 24dd_
24BB-JJ] 24d 24f] 24dd]
24B-LL [24b-
24d 24b-_
24fJ 24b-]
[24fL 24b-
24f_
24dJJ 24f]
=40
[24DLL 24B- [24ff
24D_ 24d 24ff_
24DJ_ 24f 24ff_
24DL_ [24b- 24ff_
24D_ 24f 24b-_ 24ff_
24DJJ] 24d 24b-] 24ff]
24B-LL [24f [24bb-
24d 24f_ 24bb-_
24fJ] 24bb-_
[24a-L 24b- 24bb-_
24f 24a-_ 24bb-_
24dJJ 24a-] 24bb-]
[24E-LL 24B- [24gg
24E-_ 24e- 24gg_
24E-J_ 24g 24gg_
24E-L_ [24B- 24b- 24gg_
24E-_ 24B-_ 24g 24gg_
24E-JJ] 24B-] 24e- 24gg_
24B-LL [24e- 24gg_
24e-_ 24gg_
24e-J] 24g 24gg]
[24gL 24b- [24ff
48gL_ 48ff]
48gJ_ [48ee-
24e-JJ 24g] 24ee-]
=41
[24E-LL 24c [24dd
24E-_ 24e- 24dd_
24E-J_ 24g 24dd]
24E-L_ [24c 24b- [24cc
24E-_ 24c_ 24g 24cc_
24E-JJ] 24c] 24e- 24cc_
[24EnLL 24c [24g 24cc_
48EL_ [48en 48g_ 48cc]
48EJ_ 48e] 48g_ [48cc
24EJ_ 24g] 24cc]
24EL_ [24c 24b- [24dd
48EL_ 48c_ [48g 48dd]
48EJ_ 48c_ 48g] [48b-
24EJJ] 24c] 24en 24b-]
[24FLL 24c [24b-
24F_ 24en 24b-_
24FJ] 24f 24b-]
[24anL
24a_ 24cc
24aJJ] 24b-
24anLL
24G 24g
24FJ 24f
24E-XL 24e-X
24D 24d
24CJJ 24c
=42
[24BB-LL [24B- 24d [24dd
24BB-_ 24B-_ 24f 24dd_
24BB-J] 24B-_ 24an 24dd_
24B-L_ 24b- 24dd_
24B-_ 24f 24dd_
24B-JJ] 24d 24dd]
[24FLL 24c [24ee-
24F_ 24e- 24ee-_
24FJ] 24f 24ee-]
24anL [24cc
24f 24cc_
24e-JJ 24cc]
[24B-LL [24d [24b-
24B-_ 24d_ 24f 24b-_
24B-J] 24d_ 24an 24b-_
24dL_ 24b-_
48dL_ [48f 48b-]
48d_ 48f] [48cc
96dK_ 96cc]
32dJJJ] 32dd
[24FLL 24c [24e- [24cc
24F_ 24e-_ 24cc_
24FJ] 24e-] 24f 24cc]
[24cL 24an
24c_ 24f
24cJJ] 24e-
=43
[24BB-LL [24B- 24d [24dd
24BB-_ 24B-_ 24f 24dd_
24BB-J] 24B-_ 24an 24dd_
24B-L_ 24b- 24dd_
48B-L] [48f 48dd_
[48c 48f] 48dd_
96cK] [96d 96dd_
32dJJJ] 32dd]
[24FLL [24c [24ff
48FL_ 48c_ [48e- 48ff]
48FJ_ 48c_ 48e-] [48ee-
24FJ] 24c] 24f 24ee-]
24anL [24dd
[48fL 48dd]
48fJ] [48cc
24e-JJ 24cc]
[24B-LL [24d [24b-
24B-_ 24d_ 24f 24b-_
24B-J] 24d_ 24an 24b-_
24dL_ 24b-_
48dL_ [48f 48b-]
48d_ 48f] [48cc
96dK_ 96cc]
32dJJJ] 32dd
[24FLL 24c [24e- [24cc
24F_ 24e-_ 24cc_
24FJ] 24e-] 24f 24cc]
[24cL 24an
24c_ 24f
24cJJ] 24e-
=44
[24DLL [24B- 24d [24ff
24D_ 24B-_ 24f 24ff_
24DJ_ 24B-] 24an 24ff_
24DL_ [24d 24b- 24ff_
24D_ 24d_ 24f 24ff_
24DJJ] 24d] 24ff]
24B-LL [24f [24bb-
24d 24f_ 24bb-_
24fJ] 24bb-_
[24dL 24b- 24bb-_
24d_ 24f 24bb-_
24dJJ] 24bb-]
[24E-LL 24B- [24aan
24E-_ 24e- 24aa_
24E-J_ 24g 24aa]
24E-L_ [24B- 24b- [24gg
24E-_ 24B-_ 24g 24gg_
24E-JJ] 24B-] 24e- 24gg]
24B-LL [24g [24ff
[48e-L 48g_ 48ff]
48e-J] 48g_ [48ee-
24gJ] 24ee-]
[24e-L 24b- [24dd
48e-L_ [48g 48dd]
48e-J_ 48g] [48cc
24e-JJ] 24cc]
=45
[24FLL 24d [24b-
24F_ 24f 24b-_
24FJ_ 24an 24b-_
24FL_ [24d 24b-_
24F_ 24d_ 24f 24b-_
24FJJ] 24d] 24b-]
24cLL [24e- [24dd
48e-L_ 48dd]
48e-J_ [48cc
24e-J] 24f 24cc]
[24cL 24an
24c_ 24f
96cKL_ [96e-
32cJJJ] 32e-] 32b-
[24BB-LL 24d [24b-
24BB-_ 24f 24b-_
24BB-J_ 24an 24b-_
24BB-L_ [24B- 24b-_
24BB-_ 24B-_ 24f 24b-_
24BB-JJ] 24B-] 24d 24b-]
24cLL [24d
24d_
24dJ] 24f
[24fL 24an
24f_
24dJJ 24f]
=46
8DL 8B- 8bb-
32bb-LL
32ff
32bb-
32ffJJJ
8DL 8d 8b- 8bb-
32bb-LL
32ff
32bb-
32ffJJJ
[32DLLL [32d [32b- 32bb-
32D_ 32d_ 32b-_ 32ff#X
32D_ 32d_ 32b-_ 32bb-
32DJJ_ 32d_ 32b-_ 32ff#X
32DLL_ 32d_ 32b-_ 32bb-
32D_ 32d_ 32b-_ 32ff#X
32D_ 32d_ 32b-_ 32bb-
32DJJJ] 32d] 32b-] 32ff#X
32bb-LLL
32ff#X
32bb-
32ff#XJJ
32bb-LL
32ff#X
32bb-
32ff#XJJJ
=47
[32E-LLL [32e- [32b- 32gg
32E-_ 32e-_ 32b-_ 32ff#X
32E-_ 32e-_ 32b-_ 32gg
32E-JJ_ 32e-_ 32b-_ 32ff#X
32E-LL_ 32e-_ 32b-_ 32gg
32E-_ 32e-_ 32b-_ 32ff#X
32E-_ 32e-_ 32b-_ 32gg
32E-JJJ] 32e-] 32b-] 32ff#X
8.ggL
16aanJk
24bb-LL
24ff#X
24ggJ
24bb-L
24bn
24ccJJ
24bb-XLL
24ff#X
24ggJ
24bb-L
24cc#X
24ddJJ
=48
24bb-LL
24ff#X
24ggJ
24bb-L
24dd
24ee-JJ
24bb-LL
24dd
24ee-J
24ggL
24bn
24ccJJ
24bb-XLL
24dd
24ee-J
24ggL
24bn
24ccJJ
24bb-XLL
24dd
24ee-J
24ggL
24bn
24ccJJ
=49
4f
24enLL
24f
24anJ
24e-XL
24f
24anJJ
24enLL
24f
24anJ
24e-XL
24f
24anJJ
24enLL
24f
24anJ
24e-XL
24f
24ee-XJJ
=50
[24FLL 24en [24dd
24F_ 24f 24dd_
24FJ] 24an 24dd_
24e-XL 24dd_
24f 24dd_
24anJJ 24dd]
[24FLL 24en [24cc
24F_ 24f 24cc_
24FJ] 24an 24cc_
24e-XL 24cc_
24f 24cc_
24anJJ 24cc]
4BB- 4B- 4b-
4r
=51
[4d-X [4dd-X
24d-LL] 24dd-]
24c 24cc
24B-J 24b-
24A-L 24a-
24G 24g
24FJJ 24f
8En 8en
8r
8En 8c 8cc 8gg 8bb-
16.r
32En 32c 32cc 32gg 32bb-
=52
8En 8c 8cc 8gg 8bb-
4.r
[24FLL [24cc
24F_ 24cc_ 24ff
24FJ_ 24cc_ 24aa-
24FL_ [24f 24cc_ 24ccc
24F_ 24f_ 24cc_ 24aa-
24FJJ] 24f] 24cc_ 24ff
[24a-LL 24cc_
24a-_ 24cc_ 24ff
24a-J] 24cc_ 24aa-
[24fL 24cc_ 24ccc
24f_ 24cc_ 24aa-
24fJJ] 24cc] 24ff
=53
[24FLL 24cc [24aa-
24F_ 24ff 24aa-_
24FJ_ 24aa-_
24FL_ [24f 24aa-_ 24ccc
24F_ 24f_ 24aa-_
24FJJ] 24f] 24ff 24aa-]
[24gLL 24cc [24gg
24g_ 24ff 24gg_
24gJ] 24gg] 24aa-
[24a-L [24ff 24ccc
24a-_ 24ff_ 24aa-
24a-JJ] 24ff]
[24CLL 24cc [24een
24C_ 24ee_ 24gg
24CJ_ 24ee_ 24bb-
24CL_ [24g 24ee_ 24ccc
24C_ 24g_ 24ee_ 24bb-
24CJJ] 24g] 24ee] 24gg
[24b-LL 24cc [24een
24b-_ 24ee_ 24gg
24b-J] 24ee_ 24bb-
[24enL 24ee_ 24ccc
48eL_ 48ee] [48bb-
48e_ [48ff 48bb-]
96eK_ 96ff] [96gg
32eJJJ] 32gg]
=54
[24FLL [24f [24ff 24aa-
24F_ 24f_ 24ff_ 24ccc
24FJ] 24f] 24ff] 24bb-
24aa-L
24gg
24ffJJ
24eenLL
24d-X 24dd-X
24cJ 24cc
24B-L 24b-
24A- 24a-
24GJJ 24g
24FLL 24f
24A- 24a-
24GJ 24g
24FL 24f
24c 24cc
24B-JJ 24b-
24A-LL 24a-
24G 24g
24FJ 24f
24E-XL 24e-X
24Dn 24dn
24CJJ 24c
=55
[24BB-LL [24B-
24BB-_ 24B-_ 24d
24BB-J_ 24B-_ 24f
24BB-L_ 24B-_ 24a-
24BB-_ 24B-_ 24b-
24BB-JJ] 24B-] 24dd
24ffLL
24ee-
24ddJ
24ccL
24b-
24a-JJ
[24E-LL 24g [24b-
24E-_ 24b-_
24E-J_ 24b-_ 24ee-
24E-L_ [24e- 24b-_ 24gg
24E-_ 24e-_ 24b-_ 24ee-
24E-JJ] 24e-] 24b-_
[24gLL 24b-_
24g_ 24b-_
24gJ] 24b-_ 24ee-
[24e-L 24b-_ 24gg
24e-_ 24b-_ 24ee-
24e-JJ] 24b-]
=56
[24E-LL 24g [24gg
24E-_ 24b- 24gg_
24E-J_ 24ee- 24gg_
24E-L_ [24e- 24gg_
24E-_ 24e-_ 24ee- 24gg_
24E-JJ] 24e-] 24b- 24gg]
[24fLL 24g [24ff
24f_ 24b- 24ff_
24fJ] 24ee- 24ff]
[24gL [24ee- 24gg
24g_ 24ee-_
24gJJ] 24b- 24ee-]
[24BB-LL 24a- [24dd
24BB-_ 24b- 24dd_
24BB-J_ 24dd_
24BB-L_ [24f 24dd_ 24ff
24BB-_ 24f_ 24dd_
24BB-JJ] 24f] 24b- 24dd]
[24a-LL [24dd
24a-_ 24b- 24dd_
24a-J] 24dd_
[24dL 24dd_ 24ff
48dL_ 48dd_
48d_ 48dd] [48ee-
96dK_ [96b- 96ee-]
32dJJJ] 32b-] 32ff
=57
[24E-LL [24e- 24g [24ee-
24E-_ 24e-_ 24ee-_ 24bb-
24E-J] 24e-] 24ee-] 24aa-
24ggL
24ff
24ee-JJ
24ddLL
24C 24c 24cc
24BB-J 24B- 24b-
24AA-L 24A- 24a-
24GG 24G 24g
24FFJJ 24F 24f
[24EE-LL [24E- [24e-
24EE-_ 24E-_ 24e-_ 24g
24EE-J_ 24E-_ 24e-_ 24b-
24EE-L_ 24E-_ 24e-_ 24ee-
24EE-_ 24E-_ 24e-_ 24b-
24EE-JJ_ 24E-_ 24e-_ 24g
24EE-LL_ 24E-_ 24e-_
24EE-_ 24E-_ 24e-_ 24g
24EE-J_ 24E-_ 24e-_ 24b-
24EE-L_ 24E-_ 24e-_ 24ee-
24EE-_ 24E-_ 24e-_ 24b-
24EE-JJ] 24E-] 24e-] 24g
=58
[24DD-XLL [24D-X [24d-X
24DD-_ 24D-_ 24d-_ 24e-
24DD-J_ 24D-_ 24d-_ 24g
24DD-L_ 24D-_ 24d-_ 24b-
24DD-_ 24D-_ 24d-_ 24g
24DD-JJ_ 24D-_ 24d-_ 24e-
24DD-LL_ 24D-_ 24d-_
24DD-_ 24D-_ 24d-_ 24e-
24DD-J_ 24D-_ 24d-_ 24g
24DD-L_ 24D-_ 24d-_ 24b-
24DD-_ 24D-_ 24d-_ 24g
24DD-JJ] 24D-] 24d-] 24e-
[24CCLL [24C [24c
24CC_ 24C_ 24c_ 24en
24CCJ_ 24C_ 24c_ 24g
24CCL_ 24C_ 24c_ 24b-
24CC_ 24C_ 24c_ 24cc
24CCJJ] 24C] 24c] 24een
24ggLL
24ff
24eenJ
24dd-XL
24cc
24b-JJ
=59
24a-LL
24c 24cc
24B-J 24b-
24A-L 24a-
24G 24g
24FJJ 24f
24EnLL 24en
24D-X 24d-X
24CJ 24c
24BB-L 24B-
24AA- 24A-
24GGJJ 24G
[24AA-LL [24A-
24AA-_ 24A-_ 24c
24AA-J_ 24A-_ 24f
24AA-L_ 24A-_ 24a-
24AA-_ 24A-_ 24f
24AA-JJ_ 24A-_ 24c
24AA-LL_ 24A-_
24AA-_ 24A-_ 24c
24AA-J_ 24A-_ 24f
24AA-L_ 24A-_ 24a-
24AA-_ 24A-_ 24f
24AA-JJ] 24A-] 24c
=60
[24AAnLL [24An
24AA_ 24A_ 24c
24AAJ_ 24A_ 24e-
24AAL_ 24A_ 24f#X
24AA_ 24A_ 24an
24AAJJ_ 24A_ 24cc
24AALL_ 24A_ 24ee-
24AA_ 24A_ 24cc
24AAJ_ 24A] 24an
24AAL_ [24c [24f#X
24AA_ 24c_ 24e- 24f#_
24AAJJ] 24c] 24f#]
[24GGLL [24Bn [24g
24GG_ 24B_ 24c 24g_
24GGJ_ 24B_ 24d 24g_
24GGL_ 24G 24B_ 24g_
24GG_ 24B_ 24f#X 24g_
24GGJJ] 24B] 24g]
24GLL
24en
24f#XJ
24GL
24d
24e-XJJ
=61
[24GGLL [24G [24f
24GG_ 24G_ 24Bn 24f_
24GGJ_ 24G_ 24d 24f_
24GGL_ 24G_ 24f_
24GG_ 24G_ 24c 24f_
24GGJJ] 24G] 24e- 24f]
24GLL
24Bn
24dJ
24GL
24An
24cJJ
[24GGLL 24G [24g
24GG_ 24Bn 24g_
24GGJ_ 24d 24g]
24GGL_ 24G [24ee- [24gg
24GG_ 24c 24ee-_ 24gg_
24GGJJ] 24e- 24ee-] 24gg]
24GLL [24dd [24ff
24Bn 24dd_ 24ff_
24dJ 24dd] 24ff]
24GL [24cc [24ee-
24c 24cc_ 24ee-_
24e-JJ 24cc] 24ee-]
=62
[24GGLL 24Bn [24bn [24dd
24GG_ 24c 24b_ 24dd_
24GGJ_ 24d 24b] 24dd]
24GGL_ 24G [24cc [24ee-
24GG_ 24f#X 24cc_ 24ee-_
24GGJJ] 24g 24cc] 24ee-]
24GLL [24bn [24dd
24en 24b_ 24dd_
24f#XJ 24b] 24dd]
24GL [24an [24cc
24d 24a_ 24cc_
24e-XJJ 24a] 24cc]
[24GGLL 24Bn [24g [24bn
24GG_ 24c 24g_ 24b_
24GGJ_ 24d 24g] 24b]
24GGL_ 24G [24cc [24ee-X
24GG_ 24f#X 24cc_ 24ee-_
24GGJJ] 24g 24cc] 24ee-]
24GLL [24bn [24dd
24en 24b_ 24dd_
24f#XJ 24b] 24dd]
24GL [24cc [24ee-X
24d 24cc_ 24ee-_
24e-XJJ 24cc] 24ee-]
=63
8GG 8G 8bn 8dd
8r
8GG 8G 8Bn 8g
16.r
32GG 32G 32Bn 32g
4GG 4G 4Bn 4g
4r
=
*-
